Catalina-light/actions/16/rating-unrated.svg

<svg xmlns="http://www.w3.org/2000/svg" width="16" height="16" viewBox="0 0 16 16">
 <defs>
  <style id="current-color-scheme" type="text/css">
   .ColorScheme-Text { color:#5c616c; } .ColorScheme-Highlight { color:#5294e2; }
  </style>
 </defs>
 <path style="fill:currentColor;opacity:0.3" class="ColorScheme-Text" d="M 8 0.390625 L 5.8808594 5.8847656 L 0 6.2011719 L 4.5722656 9.9160156 L 3.0566406 15.607422 L 8 12.40625 L 12.943359 15.607422 L 11.427734 9.9160156 L 16 6.2011719 L 10.119141 5.8847656 L 8 0.390625 z"/>
</svg>

<svg width="16" height="16" viewBox="0 0 16 16" xmlns="http://www.w3.org/2000/svg">
<defs>
<style id="current-color-scheme" type="text/css">.ColorScheme-Text { color:#5c616c; } .ColorScheme-Highlight { color:#5294e2; }</style>
</defs>
<path class="ColorScheme-Text" d="m8 0.39062-2.1191 5.4941-5.8809 0.31641 4.5723 3.7148-1.5156 5.6914 4.9434-3.2012 4.9434 3.2012-1.5156-5.6914 4.5723-3.7148-5.8809-0.31641-2.1191-5.4941z" fill="#363636" opacity=".3"/>
</svg>
